Numix-GalliumOS/32/mimetypes/application-x-ms-dos-executable.svg

<?xml version="1.0" encoding="UTF-8" standalone="no"?>
<svg
   xmlns:dc="http://purl.org/dc/elements/1.1/"
   xmlns:cc="http://creativecommons.org/ns#"
   xmlns:rdf="http://www.w3.org/1999/02/22-rdf-syntax-ns#"
   xmlns:svg="http://www.w3.org/2000/svg"
   xmlns="http://www.w3.org/2000/svg"
   xmlns:sodipodi="http://sodipodi.sourceforge.net/DTD/sodipodi-0.dtd"
   xmlns:inkscape="http://www.inkscape.org/namespaces/inkscape"
   width="32"
   height="32"
   viewBox="0 0 32 32"
   id="svg2"
   version="1.1"
   inkscape:version="0.48.5 r10040"
   sodipodi:docname="application-x-ms-dos-executable.svg">
  <metadata
     id="metadata22">
    <rdf:RDF>
      <cc:Work
         rdf:about="">
        <dc:format>image/svg+xml</dc:format>
        <dc:type
           rdf:resource="http://purl.org/dc/dcmitype/StillImage" />
      </cc:Work>
    </rdf:RDF>
  </metadata>
  <defs
     id="defs20" />
  <sodipodi:namedview
     pagecolor="#ffffff"
     bordercolor="#666666"
     borderopacity="1"
     objecttolerance="10"
     gridtolerance="10"
     guidetolerance="10"
     inkscape:pageopacity="0"
     inkscape:pageshadow="2"
     inkscape:window-width="1280"
     inkscape:window-height="970"
     id="namedview18"
     showgrid="false"
     inkscape:zoom="7.375"
     inkscape:cx="16"
     inkscape:cy="16"
     inkscape:window-x="0"
     inkscape:window-y="0"
     inkscape:window-maximized="1"
     inkscape:current-layer="svg2" />
  <path
     inkscape:connector-curvature="0"
     style="fill:#eeeeee"
     d="m 5.3711116,4.0000002 c -0.683594,0 -1.371094,0.6875 -1.371094,1.371094 l 0,21.2968748 C 4.0000176,27.3125 4.6875176,28 5.3320486,28 l 21.3359384,0 c 0.644531,0 1.332031,-0.6875 1.332031,-1.332031 l 0,-21.3359378 c 0,-0.644531 -0.6875,-1.332031 -1.332031,-1.332031 z"
     id="path4" />
  <g
     style="fill:#888"
     id="g8">
    <path
       d="M 8 16 L 11.554688 12.445312 L 15.109375 16 L 11.554688 19.554688 Z "
       id="path10" />
    <path
       d="M 12.445312 11.554688 L 16 8 L 19.554688 11.554688 L 16 15.109375 Z "
       id="path12" />
    <path
       d="M 16.890625 16 L 20.445312 12.445312 L 24 16 L 20.445312 19.554688 Z "
       id="path14" />
    <path
       d="M 12.445312 20.445312 L 16 16.890625 L 19.554688 20.445312 L 16 24 Z "
       id="path16" />
  </g>
  <path
     style="fill:#aaaaaa"
     d="m 5.6679866,4.0000002 c -0.445313,0 -0.7851563,0 -1.2343755,0.425781 -0.4335935,0.394532 -0.4335935,0.796875 -0.4335935,1.242188 l 0,20.7070308 c 0,0.433594 -0.00966,0.818015 0.4242782,1.193857 C 4.9220873,28 5.1914236,28 5.6250176,28 l 20.7500004,0 c 0.433594,0 0.738803,0 1.222656,-0.4375 0.411936,-0.372472 0.402344,-0.753906 0.402344,-1.1875 l 0,-20.7499998 c 0,-0.433594 -0.0084,-0.799725 -0.417969,-1.195313 -0.44489,-0.429687 -0.773437,-0.429687 -1.207031,-0.429687 z m 0.332031,1 20.0214844,0 c 0.195312,0 0.449219,0.117187 0.644531,0.3125 0.195313,0.195312 0.3125,0.449219 0.3125,0.644531 l 0,20.0644528 c 0,0.195312 -0.117187,0.449219 -0.3125,0.644531 -0.195312,0.195313 -0.449219,0.3125 -0.644531,0.3125 l -20.0429689,0 c -0.195312,0 -0.449219,-0.117187 -0.644531,-0.3125 -0.195313,-0.195312 -0.3122904,-0.449219 -0.3125,-0.644531 L 5.0000171,6 c -2.389e-4,-0.2226568 0.113281,-0.4921878 0.3125,-0.6874998 0.195312,-0.199219 0.464843,-0.3125 0.6875,-0.3125 z"
     id="path8"
     inkscape:connector-curvature="0"
     sodipodi:nodetypes="scsssssssssssssssssssssscs" />
</svg>

<svg xmlns="http://www.w3.org/2000/svg" viewBox="0 0 32 32">
 <path d="m 5.371 4 c -0.684 0 -1.371 0.688 -1.371 1.371 l 0 21.297 c 0 0.645 0.688 1.332 1.332 1.332 l 21.336 0 c 0.645 0 1.332 -0.688 1.332 -1.332 l 0 -21.336 c 0 -0.645 -0.688 -1.332 -1.332 -1.332 z" style="fill:#eee"/>
 <g style="fill:#888">
  <path d="m 8 16 l 3.555 -3.555 l 3.555 3.555 l -3.555 3.555 Z"/>
  <path d="m 12.445 11.555 l 3.555 -3.555 l 3.555 3.555 l -3.555 3.555 Z"/>
  <path d="m 16.891 16 l 3.555 -3.555 l 3.555 3.555 l -3.555 3.555 Z"/>
  <path d="m 12.445 20.445 l 3.555 -3.555 l 3.555 3.555 l -3.555 3.555 Z"/>
 </g>
 <path d="m 5.668 4 c -0.445 0 -0.785 0 -1.234 0.426 -0.434 0.395 -0.434 0.797 -0.434 1.242 l 0 20.707 c 0 0.434 -0.01 0.818 0.424 1.194 c 0.498 0.431 0.767 0.431 1.201 0.431 l 20.75 0 c 0.434 0 0.739 0 1.223 -0.438 0.412 -0.372 0.402 -0.754 0.402 -1.188 l 0 -20.75 c 0 -0.434 -0.008 -0.8 -0.418 -1.195 -0.445 -0.43 -0.773 -0.43 -1.207 -0.43 z m 0.332 1 20.02 0 c 0.195 0 0.449 0.117 0.645 0.313 0.195 0.195 0.313 0.449 0.313 0.645 l 0 20.06 c 0 0.195 -0.117 0.449 -0.313 0.645 -0.195 0.195 -0.449 0.313 -0.645 0.313 l -20.04 0 c -0.195 0 -0.449 -0.117 -0.645 -0.313 -0.195 -0.195 -0.312 -0.449 -0.313 -0.645 l -0.021 -20.02 c 0 -0.223 0.113 -0.492 0.313 -0.687 0.195 -0.199 0.465 -0.313 0.688 -0.313 z" style="fill:#aaa"/>
</svg>
